X:26
T:I Drew My Ship Into a Harbour
Z:Jack Campin, http://www.campin.me.uk/
S:Northumbrian Minstrelsy
M:3/4
L:1/8
K:Ab
E2|E E A2 E2 |F D E2 HA \
 A|d f e2 c A|d c d2
c2|d f e2 c A|c A F2 HE \
 G|A A d2 c A|B B A2 |]

